X: 1
T: Lady Lane
M: 6/8
L: 1/8
R: jig
K: Gmaj
Bc |: dBG GBd | dAG FAD | D (3DDD FAD | FGA ABc |
dBG GBd | cAG FAD | D (3DDD FAd | cAF ~G3 :|
d (3Bcd gdB | ~c2e dge| dBG ~G2E | FAG FAD |
d (3Bcd gdB | c2e dge | d (3BAG BdB |cAF ~G3 |
d (3Bcd gdB | ~c2e dge | dBg e (3dcB |ABc def |
~g2b gdB | ~c2e dge | d (3BAG BdB | cAF G3 ||
